X: 38848
T: Sunbrite, The
R: hornpipe
M: 4/4
K: Dmixolydian
|:(3FG^G|AdBA FBAF|EGFE D2ED|A,DFA [F2d2]cd|1 (3efe (3dcB A2:|2 (3efe dc d2||
|:AB|cEGc dFAd|(3fgf eg fedf|(3gag fa gfeg|~f3g fedA|
cEGc dFAd|fefg fedB|(3bag (3agf (3gfe (3fed|(3efe d^c d2:|

